images/rugby_theme_light.svg

<svg width="50" height="50" viewBox="0 0 50 50" fill="none" xmlns="http://www.w3.org/2000/svg">
<path fill-rule="evenodd" clip-rule="evenodd" d="M20.2772 3.24261C17.722 4.53828 13.4886 7.7261 10.8685 10.3281C7.81297 13.3624 5.11298 17.2172 3.33639 21.0792L0.56703 27.0986L2.69736 28.4809C3.86917 29.2408 7.66902 32.6313 11.1406 36.0147C14.613 39.3972 18.5181 43.7271 19.8181 45.6362C21.1189 47.5453 22.7463 49.1071 23.4345 49.1071C24.1226 49.1071 26.7349 48.1168 29.24 46.9059C31.7442 45.6951 35.9127 42.5814 38.5021 39.9856C41.0924 37.3898 44.3471 33.2572 45.7357 30.8016C47.1244 28.346 48.2638 25.7056 48.269 24.9341C48.2734 24.1635 45.7068 21.4373 42.5662 18.8763C39.4247 16.3154 34.6848 11.5443 32.033 8.27348C29.3804 5.00261 27.2106 2.00231 27.2106 1.60673C27.2106 1.21116 26.6953 0.887919 26.066 0.887919C25.4366 0.887919 22.8315 1.94784 20.2772 3.24261ZM28.3675 27.3325C28.6238 26.6521 27.7557 25.0448 26.4382 23.7607C25.1206 22.4767 23.5582 21.4257 22.9657 21.4257C22.3733 21.4257 21.6535 22.049 21.3664 22.8107C21.0654 23.6089 21.6991 25.1216 22.8639 26.3824C23.9743 27.5852 25.5622 28.5693 26.3917 28.5693C27.222 28.5693 28.1103 28.013 28.3675 27.3325ZM21.88 29.1363C22.8806 30.4302 23.6996 31.8491 23.6996 32.2893C23.6996 32.7295 23.072 33.3349 22.3048 33.635C21.4262 33.9779 19.9217 33.1742 18.2452 31.4687C16.7802 29.9784 15.8506 28.3148 16.1807 27.771C16.5107 27.2281 17.5193 26.7834 18.4207 26.7834C19.3231 26.7834 20.8802 27.8424 21.88 29.1363ZM33.3549 21.5811C33.3549 20.6846 32.4403 19.0773 31.3238 18.0093C30.2064 16.9413 28.8108 16.068 28.2235 16.068C27.6363 16.068 26.92 16.6913 26.633 17.453C26.3319 18.2513 26.9657 19.7639 28.1305 21.0248C29.2408 22.2276 30.8709 23.2116 31.7521 23.2116C32.7186 23.2116 33.3549 22.5642 33.3549 21.5811Z" fill="#0086FF"/>
<path d="M0 35.7638C0 37.7568 0.452901 41.217 1.00677 43.4547C1.83274 46.7925 2.53672 47.7444 4.92862 48.7606C6.53141 49.4428 10.0284 50 12.6995 50C15.6417 50 17.5552 49.6134 17.5552 49.0187C17.5552 48.4793 14.0889 44.4611 9.85285 40.0892C5.6159 35.7182 1.66597 32.1411 1.07524 32.1411C0.403749 32.1411 0 33.501 0 35.7638Z" fill="#0069B7"/>
<path d="M31.7144 2.0041C32.2946 3.10957 36.0628 7.32785 40.0883 11.38C44.1145 15.4322 48.0557 18.7469 48.8475 18.7469C50.0834 18.7469 50.2124 17.9593 49.7629 13.1659C49.4759 10.0969 48.7904 6.28757 48.2409 4.70259C47.4729 2.49076 46.4941 1.60943 44.0285 0.912935C42.2615 0.413778 38.5311 0.00301947 35.7381 0.00034063C30.7436 -0.00501705 30.6777 0.0280113 31.7144 2.0041Z" fill="#0069B7"/>
</svg>

<svg width="50" height="50" fill="none" xmlns="http://www.w3.org/2000/svg"><path fill-rule="evenodd" clip-rule="evenodd" d="M20.277 3.243c-2.555 1.295-6.788 4.483-9.409 7.085-3.055 3.034-5.755 6.89-7.532 10.751L.567 27.1l2.13 1.382c1.172.76 4.972 4.15 8.444 7.534 3.472 3.382 7.377 7.712 8.677 9.621 1.3 1.91 2.928 3.471 3.616 3.471.689 0 3.3-.99 5.806-2.201 2.504-1.21 6.673-4.325 9.262-6.92 2.59-2.596 5.845-6.729 7.234-9.184 1.388-2.456 2.528-5.096 2.533-5.868.004-.77-2.562-3.497-5.703-6.058-3.141-2.56-7.881-7.332-10.533-10.603-2.653-3.27-4.822-6.27-4.822-6.666 0-.396-.516-.72-1.145-.72-.63 0-3.235 1.06-5.789 2.356Zm8.09 24.09c.257-.68-.611-2.288-1.929-3.572-1.317-1.284-2.88-2.335-3.472-2.335-.593 0-1.313.623-1.6 1.385-.3.798.333 2.31 1.498 3.571 1.11 1.203 2.698 2.187 3.528 2.187.83 0 1.718-.556 1.976-1.236Zm-6.487 1.803c1 1.294 1.82 2.713 1.82 3.153 0 .44-.628 1.046-1.395 1.346-.879.343-2.383-.46-4.06-2.166-1.465-1.49-2.394-3.154-2.064-3.698.33-.543 1.338-.988 2.24-.988.902 0 2.46 1.06 3.459 2.353Zm11.475-7.555c0-.896-.915-2.504-2.031-3.572-1.118-1.068-2.513-1.941-3.1-1.941-.588 0-1.304.623-1.591 1.385-.301.798.333 2.31 1.498 3.572 1.11 1.203 2.74 2.187 3.621 2.187.967 0 1.603-.648 1.603-1.63Z" fill="#0086FF"/><path d="M0 35.764c0 1.993.453 5.453 1.007 7.69.826 3.338 1.53 4.29 3.922 5.307 1.602.682 5.1 1.239 7.77 1.239 2.943 0 4.856-.387 4.856-.981 0-.54-3.466-4.558-7.702-8.93-4.237-4.37-8.187-7.948-8.778-7.948-.671 0-1.075 1.36-1.075 3.623Zm31.714-33.76c.58 1.106 4.349 5.324 8.374 9.376 4.026 4.052 7.968 7.367 8.76 7.367 1.235 0 1.364-.788.915-5.581-.287-3.07-.973-6.878-1.522-8.463-.768-2.212-1.747-3.094-4.212-3.79-1.768-.5-5.498-.91-8.29-.913-4.995-.005-5.061.028-4.025 2.004Z" fill="#0069B7"/></svg>
